d1 $ midi note " 35 25 32"
d1 $ sound "bd*2[sn:2 bd/2]"
d2 $ sound "sn sn"
d3 $ sound "bassfoo bottle/3 sn/2"
hush
k $ note "40 [32 34] 36*2 42*3" # detune (slow 4 sine1)
k $ note "[[32 34], [36 38]]"
k $ every 3 (density 2) $ every 4 (palindrome) $ note "{50 52 54}%8"
k1 $ note "50"
